X: 14
T:Le Bout du Monde
M:3/4
L:1/4
C:M. Heintzen
R:Waltz
Z:Steve Mansfield
K:G
B/c/ | dBA | GBd | gec | d2e/f/ | gfe | dcB | Ad>e |
d2B/c/ | dBA | GBd | gec | d2e/f/ | gfe | dcB |
Aaf | g2 |: g/a/ | b/a/ g/a/ b/a/ | e2f/g/ | a/g/ f/e/ f/d/ | B3 |
BA/G/ A/B/ | cc/B/ c/d/ |1 ee/d/ e/g/ | a2 :|2 ee/d/ e/f/ | g2 ||

